my-app/src/assets/icons/ruler.svg

<svg viewBox="0 0 492 492" xmlns="http://www.w3.org/2000/svg" xml:space="preserve" style="fill-rule:evenodd;clip-rule:evenodd;stroke-linecap:round;stroke-linejoin:round;stroke-miterlimit:1.5"><path d="M375.642 304.585c0-35.736 7.787-162.334-27.95-162.334l-202.562-7.345c-35.736 0-23.824 181.221-23.824 216.958l24.286 695.676c0 35.74 27.949 153.23 63.685 153.23l143.741 7.56c35.736 0 20.814-103.89 20.814-139.63l1.81-764.115Z" style="fill:#fff;stroke:#000;stroke-width:28.74px" transform="rotate(-35.098 54.33 132.344) scale(.48)"/><path d="m91 172 25-22" style="fill:none;stroke:#000;stroke-width:12.14px" transform="matrix(.65664 -.04222 -.2344 .57648 23.055 -14.33)"/><path d="m91 172 25-22" style="fill:none;stroke:#000;stroke-width:12.14px" transform="matrix(.65664 -.04222 -.2344 .57648 32.655 -1.37)"/><path d="m91 172 25-22" style="fill:none;stroke:#000;stroke-width:12.14px" transform="matrix(.65664 -.04222 -.2344 .57648 42.255 11.59)"/><path d="m91 172 25-22" style="fill:none;stroke:#000;stroke-width:12.14px" transform="matrix(.65664 -.04222 -.2344 .57648 51.855 24.55)"/><path d="m91 172 25-22" style="fill:none;stroke:#000;stroke-width:12.01px" transform="matrix(1.02454 -.27651 -.55814 .78265 83.661 23.368)"/><path d="m91 172 25-22" style="fill:none;stroke:#000;stroke-width:12.14px" transform="matrix(.65664 -.04222 -.2344 .57648 71.055 50.47)"/><path d="m91 172 25-22" style="fill:none;stroke:#000;stroke-width:12.14px" transform="matrix(.65664 -.04222 -.2344 .57648 80.655 63.43)"/><path d="m91 172 25-22" style="fill:none;stroke:#000;stroke-width:12.14px" transform="matrix(.65664 -.04222 -.2344 .57648 90.255 76.39)"/><path d="m91 172 25-22" style="fill:none;stroke:#000;stroke-width:12.14px" transform="matrix(.65664 -.04222 -.2344 .57648 99.855 89.35)"/><path d="m91 172 25-22" style="fill:none;stroke:#000;stroke-width:12.05px" transform="matrix(.92715 -.2145 -.47245 .72807 125.783 91.911)"/><path d="m91 172 25-22" style="fill:none;stroke:#000;stroke-width:12.14px" transform="matrix(.65664 -.04222 -.2344 .57648 119.055 115.27)"/><path d="m91 172 25-22" style="fill:none;stroke:#000;stroke-width:12.14px" transform="matrix(.65664 -.04222 -.2344 .57648 128.655 128.23)"/><path d="m91 172 25-22" style="fill:none;stroke:#000;stroke-width:12.14px" transform="matrix(.65664 -.04222 -.2344 .57648 138.255 141.19)"/><path d="m91 172 25-22" style="fill:none;stroke:#000;stroke-width:12.14px" transform="matrix(.65664 -.04222 -.2344 .57648 147.855 154.15)"/><path d="m91 172 25-22" style="fill:none;stroke:#000;stroke-width:12.05px" transform="matrix(.92715 -.2145 -.47245 .72807 173.783 156.711)"/><path d="m91 172 25-22" style="fill:none;stroke:#000;stroke-width:12.14px" transform="matrix(.65664 -.04222 -.2344 .57648 167.055 180.07)"/><path d="m91 172 25-22" style="fill:none;stroke:#000;stroke-width:12.14px" transform="matrix(.65664 -.04222 -.2344 .57648 176.655 193.03)"/><path d="m91 172 25-22" style="fill:none;stroke:#000;stroke-width:12.14px" transform="matrix(.65664 -.04222 -.2344 .57648 186.255 205.99)"/><path d="m91 172 25-22" style="fill:none;stroke:#000;stroke-width:12.14px" transform="matrix(.65664 -.04222 -.2344 .57648 195.855 218.95)"/><path d="m91 172 25-22" style="fill:none;stroke:#000;stroke-width:12.06px" transform="matrix(.90552 -.20071 -.4534 .71594 220.477 222.343)"/><path d="m91 172 25-22" style="fill:none;stroke:#000;stroke-width:12.14px" transform="matrix(.65664 -.04222 -.2344 .57648 215.055 244.87)"/><path d="m91 172 25-22" style="fill:none;stroke:#000;stroke-width:12.14px" transform="matrix(.65664 -.04222 -.2344 .57648 224.655 257.83)"/><path d="m91 172 25-22" style="fill:none;stroke:#000;stroke-width:12.14px" transform="matrix(.65664 -.04222 -.2344 .57648 234.255 270.79)"/><path d="m91 172 25-22" style="fill:none;stroke:#000;stroke-width:12.14px" transform="matrix(.65664 -.04222 -.2344 .57648 243.855 283.75)"/><path d="m91 172 25-22" style="fill:none;stroke:#000;stroke-width:12.05px" transform="matrix(.93798 -.22139 -.48197 .73414 270.436 285.896)"/><path d="m91 172 25-22" style="fill:none;stroke:#000;stroke-width:12.14px" transform="matrix(.65664 -.04222 -.2344 .57648 263.055 309.67)"/><path d="m91 172 25-22" style="fill:none;stroke:#000;stroke-width:12.14px" transform="matrix(.65664 -.04222 -.2344 .57648 272.655 322.63)"/><path d="m91 172 25-22" style="fill:none;stroke:#000;stroke-width:12.14px" transform="matrix(.65664 -.04222 -.2344 .57648 282.255 335.59)"/><path d="m91 172 25-22" style="fill:none;stroke:#000;stroke-width:12.14px" transform="matrix(.65664 -.04222 -.2344 .57648 291.855 348.55)"/><path d="m91 172 25-22" style="fill:none;stroke:#000;stroke-width:11.99px" transform="matrix(1.06782 -.30407 -.59623 .8069 326.274 345.705)"/></svg>

<?xml version="1.0" encoding="UTF-8" standalone="no"?>
<!DOCTYPE svg PUBLIC "-//W3C//DTD SVG 1.1//EN" "http://www.w3.org/Graphics/SVG/1.1/DTD/svg11.dtd">
<svg width="100%" height="100%" viewBox="0 0 492 492" version="1.1" xmlns="http://www.w3.org/2000/svg" xmlns:xlink="http://www.w3.org/1999/xlink" xml:space="preserve" xmlns:serif="http://www.serif.com/" style="fill-rule:evenodd;clip-rule:evenodd;stroke-linecap:round;stroke-linejoin:round;stroke-miterlimit:1.5;">
    <g transform="matrix(0.48,0,0,0.48,0,0)">
        <g transform="matrix(0.818169,-0.574977,0.574977,0.818169,-137.949,115.215)">
            <path d="M375.642,304.585C375.642,268.849 383.429,142.251 347.692,142.251L145.13,134.906C109.394,134.906 121.306,316.127 121.306,351.864L145.592,1047.54C145.592,1083.28 173.541,1200.77 209.277,1200.77L353.018,1208.33C388.754,1208.33 373.832,1104.44 373.832,1068.7L375.642,304.585Z" style="fill:white;stroke:black;stroke-width:28.74px;"/>
        </g>
        <g transform="matrix(1.368,-0.0879667,-0.48832,1.20099,48.0312,-29.8546)">
            <path d="M91,172L116,150" style="fill:none;stroke:black;stroke-width:12.14px;"/>
        </g>
        <g transform="matrix(1.368,-0.0879667,-0.48832,1.20099,68.0312,-2.85459)">
            <path d="M91,172L116,150" style="fill:none;stroke:black;stroke-width:12.14px;"/>
        </g>
        <g transform="matrix(1.368,-0.0879667,-0.48832,1.20099,88.0312,24.1454)">
            <path d="M91,172L116,150" style="fill:none;stroke:black;stroke-width:12.14px;"/>
        </g>
        <g transform="matrix(1.368,-0.0879667,-0.48832,1.20099,108.031,51.1454)">
            <path d="M91,172L116,150" style="fill:none;stroke:black;stroke-width:12.14px;"/>
        </g>
        <g transform="matrix(2.13446,-0.576065,-1.1628,1.63052,174.294,48.6838)">
            <path d="M91,172L116,150" style="fill:none;stroke:black;stroke-width:12.01px;"/>
        </g>
        <g transform="matrix(1.368,-0.0879667,-0.48832,1.20099,148.031,105.145)">
            <path d="M91,172L116,150" style="fill:none;stroke:black;stroke-width:12.14px;"/>
        </g>
        <g transform="matrix(1.368,-0.0879667,-0.48832,1.20099,168.031,132.145)">
            <path d="M91,172L116,150" style="fill:none;stroke:black;stroke-width:12.14px;"/>
        </g>
        <g transform="matrix(1.368,-0.0879667,-0.48832,1.20099,188.031,159.145)">
            <path d="M91,172L116,150" style="fill:none;stroke:black;stroke-width:12.14px;"/>
        </g>
        <g transform="matrix(1.368,-0.0879667,-0.48832,1.20099,208.031,186.145)">
            <path d="M91,172L116,150" style="fill:none;stroke:black;stroke-width:12.14px;"/>
        </g>
        <g transform="matrix(1.93157,-0.446863,-0.984262,1.51682,262.048,191.482)">
            <path d="M91,172L116,150" style="fill:none;stroke:black;stroke-width:12.05px;"/>
        </g>
        <g transform="matrix(1.368,-0.0879667,-0.48832,1.20099,248.031,240.145)">
            <path d="M91,172L116,150" style="fill:none;stroke:black;stroke-width:12.14px;"/>
        </g>
        <g transform="matrix(1.368,-0.0879667,-0.48832,1.20099,268.031,267.145)">
            <path d="M91,172L116,150" style="fill:none;stroke:black;stroke-width:12.14px;"/>
        </g>
        <g transform="matrix(1.368,-0.0879667,-0.48832,1.20099,288.031,294.145)">
            <path d="M91,172L116,150" style="fill:none;stroke:black;stroke-width:12.14px;"/>
        </g>
        <g transform="matrix(1.368,-0.0879667,-0.48832,1.20099,308.031,321.145)">
            <path d="M91,172L116,150" style="fill:none;stroke:black;stroke-width:12.14px;"/>
        </g>
        <g transform="matrix(1.93157,-0.446863,-0.984262,1.51682,362.048,326.482)">
            <path d="M91,172L116,150" style="fill:none;stroke:black;stroke-width:12.05px;"/>
        </g>
        <g transform="matrix(1.368,-0.0879667,-0.48832,1.20099,348.031,375.145)">
            <path d="M91,172L116,150" style="fill:none;stroke:black;stroke-width:12.14px;"/>
        </g>
        <g transform="matrix(1.368,-0.0879667,-0.48832,1.20099,368.031,402.145)">
            <path d="M91,172L116,150" style="fill:none;stroke:black;stroke-width:12.14px;"/>
        </g>
        <g transform="matrix(1.368,-0.0879667,-0.48832,1.20099,388.031,429.145)">
            <path d="M91,172L116,150" style="fill:none;stroke:black;stroke-width:12.14px;"/>
        </g>
        <g transform="matrix(1.368,-0.0879667,-0.48832,1.20099,408.031,456.145)">
            <path d="M91,172L116,150" style="fill:none;stroke:black;stroke-width:12.14px;"/>
        </g>
        <g transform="matrix(1.88649,-0.418151,-0.944587,1.49155,459.327,463.215)">
            <path d="M91,172L116,150" style="fill:none;stroke:black;stroke-width:12.06px;"/>
        </g>
        <g transform="matrix(1.368,-0.0879667,-0.48832,1.20099,448.031,510.145)">
            <path d="M91,172L116,150" style="fill:none;stroke:black;stroke-width:12.14px;"/>
        </g>
        <g transform="matrix(1.368,-0.0879667,-0.48832,1.20099,468.031,537.145)">
            <path d="M91,172L116,150" style="fill:none;stroke:black;stroke-width:12.14px;"/>
        </g>
        <g transform="matrix(1.368,-0.0879667,-0.48832,1.20099,488.031,564.145)">
            <path d="M91,172L116,150" style="fill:none;stroke:black;stroke-width:12.14px;"/>
        </g>
        <g transform="matrix(1.368,-0.0879667,-0.48832,1.20099,508.031,591.145)">
            <path d="M91,172L116,150" style="fill:none;stroke:black;stroke-width:12.14px;"/>
        </g>
        <g transform="matrix(1.95412,-0.461219,-1.0041,1.52945,563.409,595.616)">
            <path d="M91,172L116,150" style="fill:none;stroke:black;stroke-width:12.05px;"/>
        </g>
        <g transform="matrix(1.368,-0.0879667,-0.48832,1.20099,548.031,645.145)">
            <path d="M91,172L116,150" style="fill:none;stroke:black;stroke-width:12.14px;"/>
        </g>
        <g transform="matrix(1.368,-0.0879667,-0.48832,1.20099,568.031,672.145)">
            <path d="M91,172L116,150" style="fill:none;stroke:black;stroke-width:12.14px;"/>
        </g>
        <g transform="matrix(1.368,-0.0879667,-0.48832,1.20099,588.031,699.145)">
            <path d="M91,172L116,150" style="fill:none;stroke:black;stroke-width:12.14px;"/>
        </g>
        <g transform="matrix(1.368,-0.0879667,-0.48832,1.20099,608.031,726.145)">
            <path d="M91,172L116,150" style="fill:none;stroke:black;stroke-width:12.14px;"/>
        </g>
        <g transform="matrix(2.22463,-0.633489,-1.24215,1.68105,679.737,720.218)">
            <path d="M91,172L116,150" style="fill:none;stroke:black;stroke-width:11.99px;"/>
        </g>
    </g>
</svg>
